build/img/features/feature-2.svg

<svg width="95" height="119" viewBox="0 0 95 119" fill="none" xmlns="http://www.w3.org/2000/svg">
<path d="M46.2594 31.4783C46.1133 31.0562 42.647 21.1129 37.864 18.5849C37.5773 18.434 37.2773 18.2801 36.9697 18.1234C38.4058 13.3004 38.87 9.26752 37.927 5.76969C37.0079 2.35785 33.8568 -0.174043 30.7575 0.00936316C28.0278 0.168967 26.0902 2.35601 25.5732 5.85863C25.4108 6.95925 25.4193 7.95968 25.5417 8.89019C24.9016 9.78249 24.4639 10.5575 24.3344 10.7953L0.276771 49.1079C0.0928106 49.3992 -0.134879 49.7623 0.10056 50.1913L0.327327 50.5984H0.790272C1.19639 50.5984 1.41374 50.326 1.62298 50.0642L29.2965 15.3316C31.0621 16.8287 33.1776 17.96 35.0856 18.9277C34.2304 21.5724 33.0973 24.4722 31.7559 27.6604C28.0736 36.4216 29.7895 43.6553 32.3834 45.3073C32.5135 45.3905 32.6587 45.4296 32.8039 45.4296C33.0626 45.4296 33.315 45.3015 33.465 45.0665C33.6953 44.7024 33.5892 44.217 33.2243 43.9867C31.3983 42.8239 29.7809 36.4015 33.1993 28.268C34.5149 25.1399 35.6357 22.2774 36.4975 19.6414C36.7164 19.7531 36.9293 19.863 37.1346 19.971C41.3711 22.2106 44.7477 31.8928 44.7802 31.9894C44.9217 32.3985 45.3669 32.6153 45.7758 32.4749C46.1821 32.3315 46.4 31.8863 46.2594 31.4783ZM26.2642 14.7725L24.723 16.046L25.3317 14.1409C25.5112 13.5829 25.8467 12.5941 26.2917 11.5335C26.6395 12.2873 27.08 12.9762 27.5922 13.6067C26.9999 14.1544 26.5011 14.5767 26.2642 14.7725ZM28.7291 12.5063C28.0518 11.635 27.5434 10.6469 27.2615 9.52067C28.0191 8.16966 28.926 7.07753 29.8833 7.07753C30.148 7.07753 30.403 7.15299 30.639 7.303C31.0308 7.55043 31.2514 7.92389 31.2811 8.38259C31.3527 9.51679 30.0458 11.1562 28.7291 12.5063ZM35.5539 17.4077C33.7414 16.4838 31.8334 15.4424 30.2789 14.1066C31.3184 12.7633 33.3545 9.8205 33.0831 7.66114C32.9884 6.90537 32.6187 6.28061 32.0149 5.85438C31.5142 5.50381 30.9658 5.32409 30.384 5.32409C29.1753 5.32409 28.0097 6.1247 27.0257 7.11461C27.041 6.78212 27.0685 6.44188 27.1213 6.08669C27.5272 3.33116 28.8869 1.68512 30.8494 1.57035C30.9191 1.56647 30.9916 1.56352 31.0634 1.56352C33.1194 1.56352 35.6246 3.24038 36.4167 6.17544C37.2583 9.30184 36.8474 12.981 35.5539 17.4077Z" fill="#07BBF0"/>
<path d="M29.8981 90.6385V84.6997H24.8102V90.6385C24.8102 92.0434 25.9493 93.1825 27.3542 93.1825C28.759 93.1825 29.8981 92.0434 29.8981 90.6385Z" fill="#07BBF0"/>
<path d="M84.362 110.657H15.5888C14.26 110.657 13.1829 111.734 13.1829 113.063C13.1829 114.392 14.26 115.469 15.5888 115.469H84.3623C85.6911 115.469 86.7682 114.392 86.7682 113.063C86.7679 111.734 85.6908 110.657 84.362 110.657Z" fill="#5D5D5D"/>
<path d="M72.9044 60.3997C71.0963 60.3997 69.6252 61.8707 69.6252 63.6789C69.6252 65.487 71.0963 66.9581 72.9044 66.9581C74.7125 66.9581 76.1836 65.487 76.1836 63.6789C76.1836 61.8707 74.7125 60.3997 72.9044 60.3997Z" fill="#07BBF0"/>
<path d="M36.7868 51H31.4044V61.5189H36.7868V51Z" fill="#07BBF0"/>
<path d="M81.0185 51H41.1064V63.6789C41.1064 64.8716 40.1395 65.8388 38.9465 65.8388H29.2444C28.0517 65.8388 27.0845 64.8719 27.0845 63.6789V51H24.7278C23.3578 51 21.9999 51.3736 20.8704 52.1489C18.8051 53.5666 17.7614 55.9794 18.0506 58.3741L20.9201 78.1312C21.2018 80.0718 22.8654 81.511 24.8264 81.511H34.4905C35.7587 81.511 36.7868 80.4829 36.7868 79.2147C36.7868 75.1245 40.1023 71.809 44.1925 71.809H60.8532C64.9434 71.809 68.2589 75.1248 68.2589 79.2147V99.3658C68.2589 100.559 67.292 101.526 66.0989 101.526H14.4911C13.2109 101.526 12.0914 102.489 12.0056 103.766C11.9114 105.167 13.0248 106.338 14.4061 106.338H83.1614C85.1534 106.338 86.7679 104.723 86.7679 102.731V56.7494C86.7679 53.5741 84.1938 51 81.0185 51ZM72.9044 71.2777C68.7141 71.2777 65.3055 67.8688 65.3055 63.6786C65.3055 59.4884 68.7144 56.0798 72.9044 56.0798C77.0946 56.0798 80.5032 59.4886 80.5032 63.6786C80.5032 67.8686 77.0943 71.2777 72.9044 71.2777Z" fill="#5D5D5D"/>
<path d="M93.3624 66.4266H92.3088V81.5111H93.3624C94.2653 81.5111 95 80.7764 95 79.8735V68.0643C95 67.1613 94.2653 66.4266 93.3624 66.4266Z" fill="#5D5D5D"/>
</svg>

<svg width="95" height="119" fill="none" xmlns="http://www.w3.org/2000/svg"><path d="M46.26 31.478c-.147-.422-3.613-10.365-8.396-12.893-.287-.151-.587-.305-.894-.462 1.436-4.823 1.9-8.855.957-12.353-.92-3.412-4.07-5.944-7.17-5.76-2.73.159-4.667 2.346-5.184 5.849a10.859 10.859 0 0 0-.031 3.031 19.385 19.385 0 0 0-1.208 1.905L.277 49.108c-.184.291-.412.654-.176 1.083l.226.407H.79c.406 0 .624-.272.833-.534l27.674-34.732c1.765 1.497 3.88 2.628 5.789 3.596-.856 2.644-1.989 5.544-3.33 8.732-3.682 8.762-1.966 15.995.627 17.647a.782.782 0 0 0 .84-1.32C31.4 42.824 29.782 36.4 33.2 28.268c1.316-3.128 2.437-5.99 3.299-8.627.218.112.431.222.637.33 4.236 2.24 7.613 11.922 7.645 12.018.142.41.587.626.996.486a.787.787 0 0 0 .483-.997zM26.263 14.772l-1.541 1.274.609-1.905c.18-.558.515-1.547.96-2.607a9.787 9.787 0 0 0 1.3 2.073c-.592.547-1.09.97-1.328 1.166zm2.465-2.266a7.981 7.981 0 0 1-1.467-2.985c.757-1.351 1.664-2.443 2.621-2.443.265 0 .52.075.756.225.392.247.612.62.642 1.08.072 1.134-1.235 2.773-2.552 4.123zm6.825 4.902c-1.813-.924-3.72-1.966-5.275-3.301 1.04-1.344 3.076-4.287 2.804-6.446-.095-.756-.464-1.38-1.068-1.807-.5-.35-1.05-.53-1.631-.53-1.209 0-2.374.8-3.358 1.79.015-.332.043-.672.095-1.027.406-2.756 1.766-4.402 3.728-4.517.07-.004.143-.006.214-.006 2.056 0 4.562 1.676 5.354 4.611.841 3.127.43 6.806-.863 11.233zM29.898 90.638V84.7H24.81v5.938a2.544 2.544 0 0 0 5.088 0z" fill="#07BBF0"/><path d="M84.362 110.657H15.589a2.406 2.406 0 1 0 0 4.812h68.773a2.406 2.406 0 1 0 0-4.812z" fill="#5D5D5D"/><path d="M72.904 60.4a3.283 3.283 0 0 0-3.279 3.279 3.283 3.283 0 0 0 3.28 3.28 3.283 3.283 0 0 0 3.279-3.28 3.283 3.283 0 0 0-3.28-3.28zM36.787 51h-5.383v10.519h5.383V51z" fill="#07BBF0"/><path d="M81.019 51H41.106v12.679a2.16 2.16 0 0 1-2.16 2.16h-9.702a2.16 2.16 0 0 1-2.16-2.16V51h-2.356c-1.37 0-2.728.374-3.858 1.149a6.588 6.588 0 0 0-2.82 6.225l2.87 19.757a3.947 3.947 0 0 0 3.906 3.38h9.664a2.296 2.296 0 0 0 2.297-2.296 7.406 7.406 0 0 1 7.406-7.406h16.66a7.406 7.406 0 0 1 7.406 7.406v20.15a2.16 2.16 0 0 1-2.16 2.161H14.49c-1.28 0-2.4.963-2.485 2.24a2.41 2.41 0 0 0 2.4 2.572h68.755a3.607 3.607 0 0 0 3.607-3.607V56.749A5.75 5.75 0 0 0 81.018 51zm-8.115 20.278c-4.19 0-7.599-3.41-7.599-7.6 0-4.19 3.41-7.598 7.6-7.598 4.19 0 7.598 3.409 7.598 7.599s-3.409 7.599-7.599 7.599zM93.362 66.427H92.31V81.51h1.053A1.64 1.64 0 0 0 95 79.874v-11.81a1.64 1.64 0 0 0-1.638-1.637z" fill="#5D5D5D"/></svg>
